X:1
T: Duke of Sutherland
C:Jos. Lowe
R:Strathspey
Q: 128
K:Bb
M:4/4
L:1/16
|:G2|FB,3 D3F GFED CG3|FB,3 D3B G3B F3B|E3B D3B CE3 E3G|FB3 Bcdc B4- B2G2|
FB,3 D3F GFED CG3|FB,3 D3B G3B F3B|E3B D3B CE3 E3G|FB3 Bcdc B4- B2g2|
f3B d3f gfed cg3|f3B d3B Fb3 GFED|((3E2G2E2) ((3D2F2D2) C3D E3G|FB3 Bcdc B4- B2g2|
f3B d3f gfed cg3|((3f2B2d2) ((3f2g2a2) ((3b2a2g2) ((3f2e2d2) |((3e2f2g2) ((3f2e2d2) c3B c3d|FB3 Bcdc B6:|
